styles/1/Numix/128x128/actions/default-document-open-recent.svg

<?xml version="1.0" encoding="UTF-8" standalone="no"?>
<svg
   xmlns:dc="http://purl.org/dc/elements/1.1/"
   xmlns:cc="http://creativecommons.org/ns#"
   xmlns:rdf="http://www.w3.org/1999/02/22-rdf-syntax-ns#"
   xmlns:svg="http://www.w3.org/2000/svg"
   xmlns="http://www.w3.org/2000/svg"
   xmlns:sodipodi="http://sodipodi.sourceforge.net/DTD/sodipodi-0.dtd"
   xmlns:inkscape="http://www.inkscape.org/namespaces/inkscape"
   width="128px"
   height="128px"
   viewBox="0 0 128 128"
   version="1.1"
   id="svg3002"
   inkscape:version="0.91 r"
   sodipodi:docname="blue-document-open-recent.svg">
  <metadata
     id="metadata3029">
    <rdf:RDF>
      <cc:Work
         rdf:about="">
        <dc:format>image/svg+xml</dc:format>
        <dc:type
           rdf:resource="http://purl.org/dc/dcmitype/StillImage" />
      </cc:Work>
    </rdf:RDF>
  </metadata>
  <defs
     id="defs3027" />
  <sodipodi:namedview
     pagecolor="#ffffff"
     bordercolor="#666666"
     borderopacity="1"
     objecttolerance="10"
     gridtolerance="10"
     guidetolerance="10"
     inkscape:pageopacity="0"
     inkscape:pageshadow="2"
     inkscape:window-width="1366"
     inkscape:window-height="747"
     id="namedview3025"
     showgrid="false"
     inkscape:zoom="0.921875"
     inkscape:cx="113.56963"
     inkscape:cy="63.380067"
     inkscape:window-x="0"
     inkscape:window-y="21"
     inkscape:window-maximized="1"
     inkscape:current-layer="svg3002" />
  <path
     inkscape:connector-curvature="0"
     id="path3005"
     d="M 12.125,20 C 9.867188,20.222656 7.964844,22.355469 8,24.625 l 0,78.75 c -0.027344,2.42969 2.195312,4.65234 4.625,4.625 l 102.75,0 c 2.42969,0.0273 4.65234,-2.19531 4.625,-4.625 l 0,-70.75 C 120.0273,30.199219 117.80469,27.972656 115.375,28 L 76,28 76,24.625 C 76.027344,22.238281 73.886719,20.039062 71.5,20 l -58.875,0 c -0.164062,-0.0078 -0.332031,-0.0078 -0.5,0 z m 0,0"
     style="fill:#c4905e;fill-opacity:1;fill-rule:nonzero;stroke:none;opacity:0.4" />
  <path
     inkscape:connector-curvature="0"
     id="path3007"
     d="m 16,16 96,0 0,52 -96,0 z m 0,0"
     style="fill:#e8e6cf;fill-opacity:1;fill-rule:nonzero;stroke:none" />
  <path
     inkscape:connector-curvature="0"
     id="path3009"
     d="m 24,58 80,0 0,4 -80,0 z m 0,0"
     style="fill:#787866;fill-opacity:1;fill-rule:nonzero;stroke:none" />
  <path
     inkscape:connector-curvature="0"
     id="path3011"
     d="M 12.125,56 C 9.867188,56.222656 7.964844,58.355469 8,60.625 l 0,42.75 c -0.027344,2.42969 2.195312,4.65234 4.625,4.625 l 102.75,0 c 2.42969,0.0273 4.65234,-2.19531 4.625,-4.625 l 0,-34.75 C 120.0273,66.199219 117.80469,63.972656 115.375,64 L 76,64 76,60.625 C 76.027344,58.238281 73.886719,56.039062 71.5,56 l -58.875,0 c -0.164062,-0.0078 -0.332031,-0.0078 -0.5,0 z m 0,0"
     style="fill:#c4905e;fill-opacity:1;fill-rule:nonzero;stroke:none" />
  <path
     inkscape:connector-curvature="0"
     id="path3013"
     d="m 24,34 80,0 0,4 -80,0 z m 0,0"
     style="fill:#787866;fill-opacity:1;fill-rule:nonzero;stroke:none" />
  <path
     inkscape:connector-curvature="0"
     id="path3015"
     d="m 24,42 80,0 0,4 -80,0 z m 0,0"
     style="fill:#787866;fill-opacity:1;fill-rule:nonzero;stroke:none" />
  <path
     inkscape:connector-curvature="0"
     id="path3017"
     d="m 24,50 80,0 0,4 -80,0 z m 0,0"
     style="fill:#787866;fill-opacity:1;fill-rule:nonzero;stroke:none" />
  <path
     inkscape:connector-curvature="0"
     id="path3019"
     d="m 24,26 80,0 0,4 -80,0 z m 0,0"
     style="fill:#787866;fill-opacity:1;fill-rule:nonzero;stroke:none" />
  <path
     inkscape:connector-curvature="0"
     id="path3021"
     d="m 127.99219,96 c 0.23437,11.35156 -5.8125,21.94531 -15.80469,27.69531 -10,5.74219 -22.382812,5.74219 -32.375,0 C 69.820312,117.94531 63.773438,107.35156 64.007812,96 63.773438,84.648438 69.820312,74.054688 79.8125,68.3125 c 9.992188,-5.75 22.375,-5.75 32.375,0 9.99219,5.742188 16.03906,16.335938 15.80469,27.6875 z m 0,0"
     style="fill:#859900;fill-opacity:1;fill-rule:evenodd;stroke:none" />
  <path
     inkscape:connector-curvature="0"
     id="path3023"
     d="m 113.5,75.882812 c -0.67969,0.238282 -1.25,0.695313 -1.64062,1.296876 L 94.421875,94.0625 83.539062,83.671875 c -0.4375,-1.445313 -1.804687,-2.398437 -3.320312,-2.320313 -1.515625,0.07813 -2.78125,1.179688 -3.054688,2.664063 -0.265624,1.476563 0.523438,2.945313 1.914063,3.546875 L 92.1875,100.55469 c 1.257812,1.14844 3.203125,1.14844 4.460938,0 L 116.32031,81.070312 c 0.76563,-1.007812 0.875,-2.375 0.26563,-3.484374 -0.60938,-1.117188 -1.8125,-1.78125 -3.08594,-1.703126 z m 0,0"
     style="fill:#ffffff;fill-opacity:1;fill-rule:nonzero;stroke:none" />
</svg>

<svg xmlns="http://www.w3.org/2000/svg" xmlns:xlink="http://www.w3.org/1999/xlink" width="128px" height="128px" viewBox="0 0 128 128" version="1.1">
<g id="surface1">
<path style=" stroke:none;fill-rule:nonzero;fill:rgb(76.470588%,55.686275%,36.470588%);fill-opacity:0.4;" d="M 12.125 20 C 9.867188 20.222656 7.964844 22.355469 8 24.625 L 8 103.375 C 7.972656 105.804688 10.195312 108.027344 12.625 108 L 115.375 108 C 117.804688 108.027344 120.027344 105.804688 120 103.375 L 120 32.625 C 120.027344 30.199219 117.804688 27.972656 115.375 28 L 76 28 L 76 24.625 C 76.027344 22.238281 73.886719 20.039062 71.5 20 L 12.625 20 C 12.460938 19.992188 12.292969 19.992188 12.125 20 Z M 12.125 20 "/>
<path style=" stroke:none;fill-rule:nonzero;fill:rgb(91.764706%,90.588235%,81.960784%);fill-opacity:1;" d="M 16 16 L 112 16 L 112 68 L 16 68 Z M 16 16 "/>
<path style=" stroke:none;fill-rule:nonzero;fill:rgb(47.843137%,47.843137%,40.784314%);fill-opacity:1;" d="M 24 58 L 104 58 L 104 62 L 24 62 Z M 24 58 "/>
<path style=" stroke:none;fill-rule:nonzero;fill:rgb(76.862745%,56.470588%,36.862745%);fill-opacity:1;" d="M 12.125 56 C 9.867188 56.222656 7.964844 58.355469 8 60.625 L 8 103.375 C 7.972656 105.804688 10.195312 108.027344 12.625 108 L 115.375 108 C 117.804688 108.027344 120.027344 105.804688 120 103.375 L 120 68.625 C 120.027344 66.199219 117.804688 63.972656 115.375 64 L 76 64 L 76 60.625 C 76.027344 58.238281 73.886719 56.039062 71.5 56 L 12.625 56 C 12.460938 55.992188 12.292969 55.992188 12.125 56 Z M 12.125 56 "/>
<path style=" stroke:none;fill-rule:nonzero;fill:rgb(47.843137%,47.843137%,40.784314%);fill-opacity:1;" d="M 24 34 L 104 34 L 104 38 L 24 38 Z M 24 34 "/>
<path style=" stroke:none;fill-rule:nonzero;fill:rgb(47.843137%,47.843137%,40.784314%);fill-opacity:1;" d="M 24 42 L 104 42 L 104 46 L 24 46 Z M 24 42 "/>
<path style=" stroke:none;fill-rule:nonzero;fill:rgb(47.843137%,47.843137%,40.784314%);fill-opacity:1;" d="M 24 50 L 104 50 L 104 54 L 24 54 Z M 24 50 "/>
<path style=" stroke:none;fill-rule:nonzero;fill:rgb(47.843137%,47.843137%,40.784314%);fill-opacity:1;" d="M 24 26 L 104 26 L 104 30 L 24 30 Z M 24 26 "/>
<path style=" stroke:none;fill-rule:evenodd;fill:rgb(52.156863%,60%,0%);fill-opacity:1;" d="M 127.992188 96 C 128.226562 107.351562 122.179688 117.945312 112.1875 123.695312 C 102.1875 129.4375 89.804688 129.4375 79.8125 123.695312 C 69.820312 117.945312 63.773438 107.351562 64.007812 96 C 63.773438 84.648438 69.820312 74.054688 79.8125 68.3125 C 89.804688 62.5625 102.1875 62.5625 112.1875 68.3125 C 122.179688 74.054688 128.226562 84.648438 127.992188 96 Z M 127.992188 96 "/>
<path style=" stroke:none;fill-rule:nonzero;fill:rgb(100%,100%,100%);fill-opacity:1;" d="M 113.5 75.882812 C 112.820312 76.121094 112.25 76.578125 111.859375 77.179688 L 94.421875 94.0625 L 83.539062 83.671875 C 83.101562 82.226562 81.734375 81.273438 80.21875 81.351562 C 78.703125 81.429688 77.4375 82.53125 77.164062 84.015625 C 76.898438 85.492188 77.6875 86.960938 79.078125 87.5625 L 92.1875 100.554688 C 93.445312 101.703125 95.390625 101.703125 96.648438 100.554688 L 116.320312 81.070312 C 117.085938 80.0625 117.195312 78.695312 116.585938 77.585938 C 115.976562 76.46875 114.773438 75.804688 113.5 75.882812 Z M 113.5 75.882812 "/>
</g>
</svg>
